X:1
T:Minuet
T:Minuet
T:Joseph Haydn
C:Joseph Haydn
%%score 1 2 3
L:1/8
M:3/4
K:F
V:1 treble 
V:2 bass 
V:3 bass 
V:1
 AB | c2 c2 c2 | c3 f af | fedc B2 | Bc/B/ c/B/A/B/ A2 | AGBAcB | ^cd=cBAG | F4 AG | F2 z2 :: %9
 [FA][EG] | [EG]4 [GB][FA] | [FA]4 c=B | =BdfdBd | c3 _B AB | c2 c2 c2 | c3 f af | fedc B2 | %17
 Bc/B/ c/B/A/B/ A2 | AGBAcB | ^cd=cBAG | F4 AG | F2 z2 :| %22
V:2
 z2 | A,CA,CA,C | A,CA,CA,C | B,CB,CB,C | G4 F2 | z6 | z6 | z4 E2 | z4 :: z2 | z6 | z6 | z6 | z6 | %14
 A,CA,CA,C | A,CA,CA,C | B,CB,CB,C | G4 F2 | z6 | z6 | z4 E2 | z4 :| %22
V:3
 z2 | F,2 F,2 F,2 | F,2 F,2 F,2 | G,2 G,2 G,2 | [E,C]4 [F,C]2 | [B,D]6- | [B,D]4 [B,,B,]2 | %7
 [C,A,]4 [C,B,]2 | [F,A,]2 F,,2 :: z2 | C,2 C2 z2 | C,2 C2 z2 | [C,D,F,]2 [C,D,F,]2 [C,D,F,]2 | %13
 [C,E,]2 z2 z2 | F,2 F,2 F,2 | F,2 F,2 F,2 | G,2 G,2 G,2 | [E,C]4 [F,C]2 | [B,D]6- | %19
 [B,D]4 [B,,B,]2 | [C,A,]4 [C,B,]2 | [F,A,]2 F,,2 :| %22

